assets/img/feature-speed.svg

<?xml version="1.0" encoding="UTF-8"?>
<svg width="48px" height="48px" viewBox="0 0 48 48" version="1.1" xmlns="http://www.w3.org/2000/svg" xmlns:xlink="http://www.w3.org/1999/xlink">
    <!-- Generator: Sketch 63.1 (92452) - https://sketch.com -->
    <title>icon_3</title>
    <desc>Created with Sketch.</desc>
    <g id="Page-1" stroke="none" stroke-width="1" fill="none" fill-rule="evenodd">
        <g id="landing" transform="translate(-128.000000, -715.000000)" fill-rule="nonzero">
            <g id="Group-3" transform="translate(128.000000, 715.000000)">
                <g id="icon_3">
                    <rect id="Rectangle" fill="#F5ECE9" x="0" y="0" width="48" height="48" rx="24"></rect>
                    <path d="M24,11 C16.828126,11 11,16.828126 11,24 C11,28.515626 13.3125,32.5 16.820312,34.835938 L17.070312,35 L30.929688,35 L31.179688,34.835938 C34.6875,32.5 37,28.515626 37,24 C37,16.828126 31.171876,11 24,11 Z M24,13 C30.085938,13 35,17.914062 35,24 C35,27.75 33.09375,31.015626 30.226562,33 L17.765626,33 C14.90625,31.015626 13,27.75 13,24 C13,17.914062 17.914062,13 24,13 Z M24,15 C23.445312,15 23,15.445312 23,16 C23,16.554688 23.445312,17 24,17 C24.554688,17 25,16.554688 25,16 C25,15.445312 24.554688,15 24,15 Z M29.976562,16.992188 C29.71875,17 29.476562,17.109376 29.289062,17.296876 L23.296876,23.296876 C23.03125,23.546876 22.929688,23.914062 23.015626,24.265626 C23.109376,24.617188 23.382812,24.890626 23.734376,24.984376 C24.085938,25.070312 24.453126,24.96875 24.703126,24.703126 L30.710938,18.703126 C31,18.421876 31.085938,17.984376 30.929688,17.601562 C30.765626,17.226562 30.390626,16.984376 29.976562,16.992188 Z M18,17 C17.445312,17 17,17.445312 17,18 C17,18.554688 17.445312,19 18,19 C18.554688,19 19,18.554688 19,18 C19,17.445312 18.554688,17 18,17 Z M16,23 C15.445312,23 15,23.445312 15,24 C15,24.554688 15.445312,25 16,25 C16.554688,25 17,24.554688 17,24 C17,23.445312 16.554688,23 16,23 Z M32,23 C31.445312,23 31,23.445312 31,24 C31,24.554688 31.445312,25 32,25 C32.554688,25 33,24.554688 33,24 C33,23.445312 32.554688,23 32,23 Z M18,29 C17.445312,29 17,29.445312 17,30 C17,30.554688 17.445312,31 18,31 C18.554688,31 19,30.554688 19,30 C19,29.445312 18.554688,29 18,29 Z M30,29 C29.445312,29 29,29.445312 29,30 C29,30.554688 29.445312,31 30,31 C30.554688,31 31,30.554688 31,30 C31,29.445312 30.554688,29 30,29 Z" id="Shape" fill="#BC7962"></path>
                </g>
            </g>
        </g>
    </g>
</svg>

<svg width="48" height="48" viewBox="0 0 48 48" xmlns="http://www.w3.org/2000/svg">
    <rect fill="#F5ECE9" width="48" height="48" rx="24"/>
    <path d="M24 11c-7.1719 0-13 5.8281-13 13 0 4.5156 2.3125 8.5 5.8203 10.836l.25.164h13.8594l.25-.164C34.6875 32.5 37 28.5155 37 24c0-7.1719-5.8281-13-13-13zm0 2c6.086 0 11 4.914 11 11 0 3.75-1.9063 7.0156-4.7734 9h-12.461C14.9063 31.0156 13 27.75 13 24c0-6.086 4.914-11 11-11zm0 2a.997.997 0 00-1 1c0 .5547.4453 1 1 1a.997.997 0 001-1 .997.997 0 00-1-1zm5.9766 1.9922c-.2579.0078-.5.1172-.6875.3047l-5.9922 6c-.2657.25-.3672.6172-.2813.9687a1.013 1.013 0 00.7188.7188c.3515.086.7187-.0157.9687-.2813l6.0078-6c.2891-.2812.375-.7187.2188-1.1015a1.0188 1.0188 0 00-.9531-.6094zM18 17a.997.997 0 00-1 1c0 .5547.4453 1 1 1a.997.997 0 001-1 .997.997 0 00-1-1zm-2 6a.997.997 0 00-1 1c0 .5547.4453 1 1 1a.997.997 0 001-1 .997.997 0 00-1-1zm16 0a.997.997 0 00-1 1c0 .5547.4453 1 1 1a.997.997 0 001-1 .997.997 0 00-1-1zm-14 6a.997.997 0 00-1 1c0 .5547.4453 1 1 1a.997.997 0 001-1 .997.997 0 00-1-1zm12 0a.997.997 0 00-1 1c0 .5547.4453 1 1 1a.997.997 0 001-1 .997.997 0 00-1-1z" fill="#BC7962"/>
</svg>
